X:37
T: Tim snte ar do thuama, S. 43
N: I0536
O: Irland
S: O'SULLIVAN, Donal: Song of the Irish]
R: Liebeslied, Trauer]
M: 3/4
L: 1/8
K: C
D2 | EGB2AG | G2G2
G2 | c2e2dc | cBc2
cB | A2G2E2 | A2GE
CD | E2D2C2 | C2C2z2 |
B2A2G2 | G2G2
GA | c2e2dc | c2c2
cB | AAG2E2 | A2GE
CD | E2D2C2 | C2C2

@@@ Tune index: 7312
